X: 12171
T: Exile's Dream, The
R: reel
M: 4/4
K: Gmajor
|:D|GGBG dGBG|Gggd BGGA|=F2 AF cFAF|=FGA_B ced=B|
G2 BG dGBG|GABc d2 d2|de=fd cedc|BGAF DG G2:|
|:BA|Gggd BGGB|Affc AFFA|GFGA BABc|dfeg fdcA|
Gggd BGGB|Affc AFFA|GABc defd|cAGF DG G2:|
|:d|dgga bgag|fdde fgaf|cedc B2 cA|GBAG FD D2|
dgga bgag|fdde fgaf|gbaf g2 ag|fdcA BG G2:|

